-----BEGIN PGP PUBLIC KEY BLOCK-----

mQINBGmv5QMBEADEJmScJ7fbthUYLB72UI6XhVcU9MDWkCOGsTD6BM6mkbadh5gp
dTAT3oVfojTy0LcmggrrP5z10OVgVqoW5trIALCGVYEynQvxw5DOqEybL7Op3+wS
dfehCRJMGcHUxLLxAPrFwEr4KWOub0Iuqhw4UyLNmGZjebRp8ItcE1DAX8R/dsLS
0O1pa8mtoFvAsGT/YhvnrFrhKhys8nyIN+pz4OrP0AMrBGBxut4shqNwCC1SRJxM
juUNLaj32WFVWpOk7hXLcrhd/8SjzfPvFm087eZUql0LTogiTx9IMM9BlZVMlkmw
euU++wAZkvuTiIYRWfg1Jsqs7pL7a27M1rt8EWJReNaemDKFB644UUZcVlegxCgH
DLq+s29Vim+vjhl4yz1djgfUOigSINCy5BPdhnolKC+TPMxXfzczKenoTxs7ZC57
ZFn0Pl3fx5blu4KVAQpiIO5eruHUXHriZJeeS7rUEA/tA6h67KrSbSjMNoUC6GNQ
vcxCruKBuHMNyDEJYxh8ZSr74tF4sABP1KRPjqv1sXBmZrnkgY99AdoyI/XLxg1v
nzKmG4d03S6+o0cooRwsDUB377Zo1RBHhqiczbMxiwOS5Og9x51M2jRyEqHQlfoG
KB8/QdECXdc2aosrQZDAcelpTZCfbxbzkNsiEmr7Be+nywZlb4WC2CF1GQARAQAB
tBpNaWd1ZWwgSmFjcSA8bWlnQG1pZzUubmV0PokCVAQTAQoAPhYhBFSpEUOuCrT3
dDsB/oiO0bQjo7yZBQJpr+UDAhsDBQkFo5qABQsJCAcDBRUKCQgLBRYCAwEAAh4B
AheAAAoJEIiO0bQjo7yZCxQQAJSFXY4liN/K0fK6ZFqjukB7mdjEmV7rWOPKy1dU
QJvXugZ8cCBGryPqhbobsxOZoohqT0JDuJoH0cD4smKMVSyBwpAA/VAu3KqgBy0O
9RrSeHY7AujzIasyp+FL2DswKuawdKOIW/m4eUjVuSOIuZvKGFNy2PJluDUWCWeP
CNGbl85y9IVT6AFrlZB1h3fSchRH6Xtd9ACmT1Z6h7Id4yJCjFEu0p9W0axMmiXI
NOYN85tM/c4BF+V2k/LK7Ei5N5B24D5G6ud3AjHSeWklVG19d0/OEGlkkOI601Js
gFuNTbvxRjqskNdh6gGsGkkP075mmuWSmi/TeVZX+Y9ZxUhJmMr7ywAwkVQ75PHt
G11fNQFjPUdiKBjye5irMYvykL7juJtG2C6TLR1/Ldhr/4KPAmnCFzXtk8npp/pE
bxyyMdOiTU/udtj7NMCXwCC/3xzXBOrRKXPF7OMESZFgG3UcAJefAkPT9OMT2CBH
K/Hh7qt22XqS0WoA9Fx9P72hcgpsOx679q3AcKp1SZFaUpgfBbJ50hPhVoreE/7J
I/Jk7Pay3ihVDfraiwUgQZ7JZ6hqSSsiZBXHMQZ2R/lIddAA+rRm7VN04R/SeiZW
6iI4DWaHIkNeosOrqkiQb4C1K6iVy00ANpFkLoANVXIUD3NkTItcdYlLeFbzfL0F
vwXnuQINBGmv5XkBEADrXJSARysztP6yEH5NXP6RfdTobT5U40gGh3K69zyMU3EV
1qnrMeZqLTxDpfnpNCYK+vwTmq5i1bPWDRSGz9Tu2iWaoI8VvtYUHmbR9ddyPcqE
eM1VeAr+nZTEovKiRpBoGaz9osD6G4fH+JB/vGQIvScRW8EcDaq+8MbM8Ck27Jlx
Dah6zKcsuVCzwBsG4e0hd73BQI826r7ohld4Qc58qouRvM2OtFeFMUHtTPTY1m5G
aiDBemF+JucInLicPu5W2hkWeNnMNLSlJxqfoQL6h3yt4Tn3aeum/qdB/9o8HQRF
wCbx2Qu5hyNtjA6D5oAsbXDOITyvVvlqLCl69gULZMhBP6vge8+o1mg58JPy+eEs
R7gxeJRnk8iYMdbHw1ZdtWG9x7l7eqKcmA4OdkCg3MIMqAGkBh5UaxfxtaWtjwOk
WuL0jCnxdZYZ7qSu899Tv6T6Q6fKmkybeyjEudBX19NREt/ZFzS2UqfNX9gUtLNb
2YqGFApmmSGCIbdIA2E7Z85/zCKHQdXN8pHYhsIQkpR3xQlcIwGR8ldASeQsb593
P+42AdOmzFm1VmIUCeOS2BUHEIMu+5JQUhGeLC6qkHQEKso1LyYIqthK9Vm6alnh
Zpx7kNMWB732RNCdxB3nb524ZfhoalSyxsa4I135ZXv8dATgqCHQL4C4RRkexQAR
AQABiQRyBBgBCgAmFiEEVKkRQ64KtPd0OwH+iI7RtCOjvJkFAmmv5XkCGwIFCQWj
moACQAkQiI7RtCOjvJnBdCAEGQEKAB0WIQSDibExz2GBZ2RJ3DIDkGtBEKrTuAUC
aa/leQAKCRADkGtBEKrTuP99D/9mS9s9A37m59BsPFkrKH3J8DVnmrT882cGUYW5
kKJtsnhaX1CrZHg6xHCNgKAYwph3y99dqMCG+4q+6mDX1C+00HlWk7IXC6k+RAfu
3J1WIqHi3Lb8fBdodUmfoIl0lPD/CG7lwcae/pIodYfaIMcZ/cN2OsPV5hRXgeVB
URD4eAaXZS9t6vg/XRm8Q9sq5jICOGXLzjEG+6477KIjmyECjW810yJG9+Zarfwy
0G6WAqSKz77x2HyQJLDMOprCLfH86vU3Wn9LtKowqqsKlzsDEEvXdVGAZbHocWb6
nQtVxfp47nmrrdQVxvXqrLyfxi+Cw6HXyegOshYiUfiLgGcgYAEz1yB8Q2Jg+Mcu
VE0eU35FkQrrQEiOEM7eH+1ABxAc3OLgL92/6aEsgUqQEUnpjoX+SCMy+x956eaz
NO+TZ2lrLGqjPap7scj0spmrYb/NLLxkqTktiZXdhcZH6w9vsNUM1zBNlf+IZqzY
ollLmTGlmtiKzYrStj5/xf340A1XmSg0kKQ2fQVck0hsKI7VZY1WXqIrUh6cpirF
MigGh/n7N/dfU4kgmJ++9Bc+lfUFAq6pAe46r9ETXHHMqh6XySZsEp3eRxybPU7G
+eVE+wuxTgQIk8IEDxBHJIUjp9pQmuk/MiOGvWiIVzcF1JylkUZqrnAE5iAGoiJM
0rJlarcDD/9ufeog5dGU/mb3omFM8K7VuMZyulDhHzzdl68vYGli/OWEyyVCrgnP
7tji6cQe28WKHhdsS3A23TH4xCUA3524+A3f7W+7fi0CYvAFVLAr8qvxTGro7e+V
ejrcObBY2e+vV0qt+IShd22vJfeOcc3CxYz/c1wd2txf2mk12Z53z98BVTiRABPx
+N4rT9jcpyzqWpbQnCD8HyfEZDQDBhFSZZD2carGi4AgNmlspaV5RCm8A3y+oYRI
3XXqRSWtXTQyh7731PZPq0JSvn2TrvDZtoLpHXVoCNTRA9+VTln2qVAN+MAqvQW6
jjCEgzwdFFxe32Wq70t05RvEd2eeFzqzkK5oRyFJZn661/iUyrF3ocpXAMSix/Ft
XXb91b2eLBLB1TS/RyDpmKsdPJx592Huk1MarE4mY403bAbQVzJBxzFZqEGqju62
N0dW/+S6Eaklp6qlsEy8fRA9CxUqr/70FvvL5lfEERv/WWcQrez22tmTtYxrE62n
5u3MayjzALcdmO383lsY9+JRIA3LjiNYE1qag5oNl+5zYxsVnl1FiITbS/LAtRFp
44adeQXpBJEP45rTrBFl3lH38eXpg8onwESBg1O1eI+IWxnadrghAtR0SzoR3+/d
Rhuz6bn9PPMcmQJ9qjG+GhCz93wcjPcW3yoiJBWEMDx7A1wQuG0vwbkCDQRpr+WX
ARAAqUAUjS7XRWsiffhqo0ATGukSYcJ+FpZKXf2NkJVDSScR6JvmtpLJB7Y+qyYt
VieGqqRNsJWzzGgj4A2z0Vg5Tz1oMpIosV2Ia98jR2HkvaOlM7v1xLqkW4OoFYU3
kwh/pr12Vk/u82C5kCCVb0yTEMoXSlgOKCRZT1PztbgZHxM5qDqyzabD5rEoRGCw
hB5v0NP0sUcWcWGjf9sxvxug2adXmW48rD+Pf+yuzPMwjflepka/wCk2yVa13UsM
lLUhU4kwKJ+EcTnO3wY41+sjVoO5Yr4kMW03E2dDWUt9cQlo97h6Rm7n/+vewRKR
5/LPlkMF1KkjgIg4VR5vYNKKu5coO6SCTaRqKD/YsN5m3XZbWDxt06mjlCJrJYIB
Y2b5uby4udFZXc5CbM7rUXMScZ/PdHSTiaqGYAQQ8LfkV8/0tD37XMRb51k8fz16
yZhiR1a8OLfB9gL/dudUZdkXzDfG/A5RrxBsX0ILAnX4Sqs2HWANG2WJ6UJGu1iA
m20Q40g9kKXrFQ+kmIp+hwux8R0mFx5p7DoPvSri9q6fHFu6jZB/lLzHi57o4Mrt
dZEPjyy+XQROha8r74h9gAOeta1xI2ZCqigfLk12eOXes/Ir3HPbetIKEKdPStV3
CUyncXEv+HA1daYPK4jCqOgnrs962no+Ba7+TyOo+qtAi90AEQEAAYkCPAQYAQoA
JhYhBFSpEUOuCrT3dDsB/oiO0bQjo7yZBQJpr+WXAhsMBQkFo5qAAAoJEIiO0bQj
o7yZDS8QAIVgd8m89rrk1YVsjuZTRyHSuIEG1IIRuLLt2UvtBFHoCl8FlHtafJ0z
hqjHwOQlf4+uzLWvBl/8brPgbMdjSFJlLTFzPP76ORnJYyyBqNA3MX46DyigyEw5
ljLMwLC/3xZ5aUgU2j1FsC3JYW7QlDy+iNSh3hYH3emOsWjkJARbCYWrrfsodCwx
FRfLAXEk/9J+Hnw9KS8/ioxLYCG4/MXsey9vbOzx2FbLNQer1jIxpMQi4RNArR7e
3TztReUqP0yM/xGhbselTd/DKIajlGMALnhZDii9rXK28ltMuM2Ye6Ke0BYdZ3sY
VPvuV6NSiW968+W5etIpB9G+3SyBj6aYAS5f84Rv3LliiKP2kbyfqYcu+9fRFt/I
uIgx6ITgkzFHOgZZhqmw5dv/Xuy8aZFOS+9XtB7maLgz2RgcsgmChS5xFV3w+LlK
xMwQRUVPcj+Zf2c95c5OGEynJnSG6djrJ+e6V6mRF+vNdMMEMRccydzUMe29qEr3
DtUXBkhJD6uvXV29u3UbInikwgRLl7j78kbwdICUHwLBvKiqZf//gsqN+dawsOaw
xGXmPmoyktlRXpge03D5Q5smJ7HVENmLe9iI6ZsSjCCmPqO/5czHF3zPDVyGk7qC
xIhXoh1tNp0k3uFHzg2E0JQpfLaSzKTOb3FixTkXnEX8qoEUOr51uQINBGmv5bIB
EADyRu/CtJ9JsNUj510hAUBtAHZU2l8W2MMQUlNDTbDcnTU3ACPmT8K4VJs3NB8q
W88JZ84q9Zq0Jx+SjncYEIXWYfdKO7RdaE+hwXdfv6MKB0mp5bpWTWcb5h7WvtuH
aIH7eLvUY1ult+41WNjxwwYSQfkl9tsZLZF1J13GbIqiGHo1hBQBKxwQ80aI/wJh
k7+tqxumYPg+FTKtNrR4yNyzhMJ7fRAHMnVpMIzFWFV+Jds3K8b7kFpz8xggpnfI
V1POLkLcffsc4D0RYVZQ9W84+X3ISYupEm0QI0fkGBYSrWnP/hgTkkEcj0tNgh05
zeJEY03zgIjyqLoQ1tHSBQm53k5f7V9/qy/uOuRAAMOmJIqnT0s5FY86XROZCAqy
mQURLCSVpCEbEF5Cy7CFntZeLI7A+leB77a+4yqGGRl8IMAq28BMFNBcOXoKj5Hx
an3vZU7xP9IiiJ72xJQp9mZwHQ4mSyKpoajxGe5quNljJSleMj0gTSYqTJ4aAg/G
PzmCGScSScr6+NrxfLqN3M8Vgx3fBzGYw9+P3Zcxr4StXSuVyFcPXCBKjgLWHdDz
5vsN/Vn3ZxNSgsNH5zxFac7cWcqXgyc3P8aROQuYwQz36FWAfN2VoCDK84EZ6Fv8
rtogrwQ8HF0ZeKFFRjAy+ys+NTadDZBErd1CHavKSlg0FQARAQABiQI8BBgBCgAm
FiEEVKkRQ64KtPd0OwH+iI7RtCOjvJkFAmmv5bICGyAFCQWjmoAACgkQiI7RtCOj
vJmKqhAAwHCeKwJEz3n2b4P/lQyRc4cNRrplcGbPgtFtm0xodciQTzG99QM8Q33o
uZdkkoW4p9E2/KE1rLHITiaQv99lh0YnZUjWbUptpEdm7jSEB6r+8MY8iLQsUrkP
i4C/ScPEJjbEPsbBEz04pP8PekvT5YbWTwgGU+V77hJAnES2QnV+TyHtTU9g1Txt
n7593QR/m2KEGz/FTIaZ6uvSVYKam6rIr/GIA2siP+HsGwxXbXH/wBxoAa4TU5Sk
8CVspHaJ/wOrluaWgC5/J3i4KXr6Rrw3zHzbI+TdiAKyc4uN+ddYI7HEeOq37Ijp
ziw/0+S18pIWpD1NvDU6zNWMyWB55qGAumiA5ZFaeTuu5DUllSCYWuNLUXFlBVT0
dosMNmuy/9riPpC07cniXed7G3kU4H1AtAk2vTMki7nULLP/6oE66AMdsMdg1CJb
ZzsAbajTDpXAPi/DS7819PzCTWtKSbL9y/2INhi0lMfM9FHoWlRzTA4CTUmnnlHQ
m+S/DkyJpLdl5b8cZ5DvOFsCdGIfdcfByh2I2yNuWOSoFkYNZNmYggA2oPXuPOK5
ikLNNz2xA5WjhzPjn8r0JJnMs7nwPYFFwLXsbrUqNUGbcqiebDN4X1gZGNRijy/l
wrkLyq+ZsJtOFHpJi3Y3o5hOLUZTP1Ysmq/WVHEvoxxrvJ9ogoQ=
=KnXo
-----END PGP PUBLIC KEY BLOCK-----
